X: 7248
T: Clapton, The
R: jig
M: 6/8
K: Adorian
age a2b|ged BAG|age age|def ~g3|
age a2b|ged BAG|~c3 dcd|1 e/f/ge deg:|2 e/f/ge dBA||
|:~d3 cAG|AdB cAG|~d3 cAG|~E3 GFG|
A2d cAG|B/c/dB cAG|1 ded cAG|~E3 D3:|2 ~c3 dcd|e/f/ge deg||

